X: 19112
T: Miss Hutton
C: J.Bowie
B: RSCDS 19-11(II)
Z: 1997 by John Chambers <jc:trillian.mit.edu>
M: 4/4
L: 1/8
%--------------------
K: Bb
|: A \
| "Bb"B<F F>E D<F F2 | "Gm"D<G G>A B>c d>g \
| "Bb"f<d c>B "F"A/B/c A>F | "Gm"D<G "D7"d>c "Gm"B<G G :|
F \
| "Bb"B<B d>B f>d c>B | "F"A/B/c f>d c<f A<F \
| "Gm"G>A B>d g/^f/g/a/ gd | "D7"b>a g>^f "Gm"g/g/g g>a |
| "Gm"g/a/b g>d "Cm"e/f/g e>c | "Gm"d/c/B/A/ B>G "D7"^F<A D>d \
| "Gm"B>c d>B "Cm"c<e d>c | "Gm"B>G "D7"B/A/G/^F/ "Gm"D<G G |]
%%center Book19/19112-Miss_Hutton-1.abc

%%sep 1 1 500
%%sep 1 1 500

